X:50
M:2/4
L:1/8
K:D
|:(3Bcd AA|(3cde .A.A|(3def .A.A|(3efg .A.A|(3agf .a.a|(3gfe .g.g|(3fed .d.d|d4:|

